X:189
T: Die beiden Waisenkinder
N: Q0118B
O: Mitteleuropa, Deutschland (BRD) , Westfalen
R: Ballade, Waise, boese Stiefmutter, Klage am Grab, Geist
M: 6/8
L: 1/8
K: G
D | GGGGFG | AAz3
D | DDdd2c | B3z2
d | BBBBcd | e3ed
c | dddd2c | B3z2

